azure-patterns/svg-square-of-squares.svg

<svg xmlns="http://www.w3.org/2000/svg" viewBox="0 0 49 49">
                                
                            
  <path d="M7.42331 0.760376H0.222534V7.96116H7.42331V0.760376Z" fill="#50E6FF"></path>
  <path d="M17.6209 0.760376H10.4202V7.96116H17.6209V0.760376Z" fill="#50E6FF"></path>
  <path d="M27.8183 0.760376H20.6176V7.96116H27.8183V0.760376Z" fill="#50E6FF"></path>
  <path d="M38.0244 0.760376H30.8236V7.96116H38.0244V0.760376Z" fill="#50E6FF"></path>
  <path d="M48.222 0.760376H41.0212V7.96116H48.222V0.760376Z" fill="#0078D4"></path>
  <path d="M7.42331 10.9583H0.222534V18.159H7.42331V10.9583Z" fill="#50E6FF"></path>
  <path d="M17.6209 10.9583H10.4202V18.159H17.6209V10.9583Z" fill="#50E6FF"></path>
  <path d="M27.8183 10.9583H20.6176V18.159H27.8183V10.9583Z" fill="#50E6FF"></path>
  <path d="M48.222 10.9583H41.0212V18.159H48.222V10.9583Z" fill="#0078D4"></path>
  <path d="M7.42331 21.1643H0.222534V28.3651H7.42331V21.1643Z" fill="#50E6FF"></path>
  <path d="M17.6209 21.1643H10.4202V28.3651H17.6209V21.1643Z" fill="#50E6FF"></path>
  <path d="M38.0244 21.1643H30.8236V28.3651H38.0244V21.1643Z" fill="#0078D4"></path>
  <path d="M48.222 21.1643H41.0212V28.3651H48.222V21.1643Z" fill="#0078D4"></path>
  <path d="M7.42331 31.3617H0.222534V38.5625H7.42331V31.3617Z" fill="#50E6FF"></path>
  <path d="M17.6209 31.3617H10.4202V38.5625H17.6209V31.3617Z" fill="#0078D4"></path>
  <path d="M27.8183 31.3617H20.6176V38.5625H27.8183V31.3617Z" fill="#0078D4"></path>
  <path d="M48.222 31.3617H41.0212V38.5625H48.222V31.3617Z" fill="#0078D4"></path>
  <path d="M7.42331 41.5596H0.222534V48.7603H7.42331V41.5596Z" fill="#0078D4"></path>
  <path d="M17.6209 41.5596H10.4202V48.7603H17.6209V41.5596Z" fill="#0078D4"></path>
  <path d="M27.8183 41.5596H20.6176V48.7603H27.8183V41.5596Z" fill="#0078D4"></path>
  <path d="M38.0244 41.5596H30.8236V48.7603H38.0244V41.5596Z" fill="#0078D4"></path>
  <path d="M48.222 41.5596H41.0212V48.7603H48.222V41.5596Z" fill="#0078D4"></path>
  <path d="M38.0244 10.9583H30.8236V18.159H38.0244V10.9583Z" fill="#0078D4"></path>
  <path d="M27.8183 21.1643H20.6176V28.3651H27.8183V21.1643Z" fill="#0078D4"></path>
  <path d="M38.0244 31.3617H30.8236V38.5625H38.0244V31.3617Z" fill="#0078D4"></path>
</svg>

<svg xmlns="http://www.w3.org/2000/svg" viewBox="0 0 49 49"><path d="M7.423.76h-7.2v7.201h7.2v-7.2zM17.62.76h-7.2v7.201h7.2v-7.2zM27.818.76h-7.2v7.201h7.2v-7.2zM38.024.76h-7.2v7.201h7.2v-7.2z" fill="#50E6FF"/><path d="M48.222.76h-7.2v7.201h7.2v-7.2z" fill="#0078D4"/><path d="M7.423 10.958h-7.2v7.201h7.2v-7.2zM17.62 10.958h-7.2v7.201h7.2v-7.2zM27.818 10.958h-7.2v7.201h7.2v-7.2z" fill="#50E6FF"/><path d="M48.222 10.958h-7.2v7.201h7.2v-7.2z" fill="#0078D4"/><path d="M7.423 21.164h-7.2v7.201h7.2v-7.2zM17.62 21.164h-7.2v7.201h7.2v-7.2z" fill="#50E6FF"/><path d="M38.024 21.164h-7.2v7.201h7.2v-7.2zM48.222 21.164h-7.2v7.201h7.2v-7.2z" fill="#0078D4"/><path d="M7.423 31.362h-7.2v7.2h7.2v-7.2z" fill="#50E6FF"/><path d="M17.62 31.362h-7.2v7.2h7.2v-7.2zM27.818 31.362h-7.2v7.2h7.2v-7.2zM48.222 31.362h-7.2v7.2h7.2v-7.2zM7.423 41.56h-7.2v7.2h7.2v-7.2zM17.62 41.56h-7.2v7.2h7.2v-7.2zM27.818 41.56h-7.2v7.2h7.2v-7.2zM38.024 41.56h-7.2v7.2h7.2v-7.2zM48.222 41.56h-7.2v7.2h7.2v-7.2zM38.024 10.958h-7.2v7.201h7.2v-7.2zM27.818 21.164h-7.2v7.201h7.2v-7.2zM38.024 31.362h-7.2v7.2h7.2v-7.2z" fill="#0078D4"/></svg>
